assets/stickers/emoticons/stickers/imgly_sticker_emoticons_laugh.svg

<svg height="58" viewBox="0 0 62 58" width="62" xmlns="http://www.w3.org/2000/svg"><g fill="none"><path d="m61.3 34.5c0 13-11.9 23.5-30.3 23.5s-30.3-10.5-30.3-23.5 11.9-32.5 30.3-32.5 30.3 19.5 30.3 32.5z" fill="#f7910b"/><path d="m61.3 34.5c0 13-11.9 19.5-30.3 19.5s-30.3-6.5-30.3-19.5 11.9-34.5 30.3-34.5 30.3 21.5 30.3 34.5z" fill="#f7910b"/><path d="m31 0c18.4 0 30.3 21.5 30.3 34.5s-11.9 19.5-30.3 19.5" fill="#f9a908"/><path d="m61.3 34.5c0 13-11.9 19.5-30.3 19.5s-30.3-6.5-30.3-19.5 11.9-32.5 30.3-32.5 30.3 19.5 30.3 32.5z" fill="#f9a908"/><path d="m.7 34.5c0-13 11.9-32.5 30.3-32.5" fill="#f9c55d"/><path d="m31 2c18.4 0 30.3 19.5 30.3 32.5s-11.9 23.5-30.3 23.5" fill="#f7910b"/><path d="m31 2c18.4 0 30.3 19.5 30.3 32.5" fill="#ea7103"/><g transform="translate(18 11)"><path d="m6.9.9c.3.8-1.2.9-2.9 1.6-1.7.6-2.9 1.6-3.2.8s.8-2 2.5-2.6c1.6-.7 3.2-.6 3.6.2z" fill="#19bca4"/><path d="m6.9.9c.3.8-1.2.9-2.9 1.6-1.7.6-2.9 1.6-3.2.8" fill="#109da0"/></g><g transform="translate(37 11)"><path d="m.1.9c-.3.8 1.2.9 2.9 1.6 1.7.6 2.9 1.6 3.2.8s-.8-2-2.5-2.6c-1.6-.7-3.2-.6-3.6.2z" fill="#19bca4"/><path d="m.1.9c-.3.8 1.2.9 2.9 1.6 1.7.6 2.9 1.6 3.2.8" fill="#109da0"/></g><g transform="translate(11 25)"><path d="m15.8 2.8c0 1.2-3.5.7-7.8.7s-7.8.6-7.8-.7c0-1.2 3.5-2.2 7.8-2.2s7.8 1 7.8 2.2z" fill="#f9c55d"/><path d="m39.8 2.8c0 1.2-3.5.7-7.8.7s-7.8.6-7.8-.7c0-1.2 3.5-2.2 7.8-2.2s7.8 1 7.8 2.2z" fill="#f9a908"/></g><path d="m36.3 29.6c0 1.1-2.4 2.1-5.3 2.1s-5.3-.9-5.3-2.1" fill="#f9c55d"/><ellipse cx="9.3" cy="31.5" fill="#f7910b" rx="1" ry="1"/><ellipse cx="4.8" cy="33.5" fill="#f7910b" rx="1.1" ry="1.1"/><ellipse cx="7.8" cy="29.5" fill="#f7910b" rx="1" ry="1"/><circle cx="12.4" cy="31.3" fill="#f7910b" r="1"/><circle cx="51.6" cy="31.8" fill="#f9a908" r="1"/><circle cx="54.1" cy="33.2" fill="#f9a908" r="1"/><circle cx="48.8" cy="24.4" fill="#f9a908" r="1"/><circle cx="48.3" cy="36" fill="#f9a908" r="1.3"/><circle cx="55.5" cy="36.1" fill="#f9a908" r="1"/><ellipse cx="8.3" cy="35.5" fill="#f7910b" rx="1" ry="1"/><circle cx="9.1" cy="27.1" fill="#f7910b" r="1"/><g fill="#f9a908"><ellipse cx="3.8" cy="13.3" rx="1.1" ry="1.1"/><ellipse cx="7" cy="9.8" rx="1" ry="1"/><circle cx="58.2" cy="15.7" r="1"/><ellipse cx="57.4" cy="12.8" rx="1" ry="1"/><circle cx="60" cy="13.3" r="1"/><ellipse cx="5" cy="16.3" rx="1" ry="1"/></g><g transform="translate(14 19)"><path d="m8.9 6c-.4-.1-.8-.3-1.1-.7-1.1-1.6-3.4-2-5-.9-.8.5-1.8.3-2.3-.4s-.3-1.8.4-2.3c3.1-2.2 7.4-1.4 9.6 1.8.5.7.3 1.8-.4 2.3-.4.2-.8.2-1.2.2z" fill="#1e4784"/><path d="m10.5 3.4c.5.7.3 1.8-.4 2.3-.4.3-.8.3-1.2.3-.4-.1-.8-.3-1.1-.7-1.1-1.6-3.4-2-5-.9-.8.5-1.8.3-2.3-.4s-.3-1.8.4-2.3" fill="#02243e"/></g><g transform="translate(37 19)"><path d="m2.1 6c.4-.1.8-.3 1.1-.7 1.1-1.6 3.4-2 5-.9.8.5 1.8.3 2.3-.4s.3-1.8-.4-2.3c-3.1-2.2-7.4-1.4-9.6 1.8-.5.7-.3 1.8.4 2.3.4.2.8.2 1.2.2z" fill="#1e4784"/><path d="m.5 3.4c-.5.7-.3 1.8.4 2.3.4.3.8.3 1.2.3.4-.1.8-.3 1.1-.7 1.1-1.6 3.4-2 5-.9.8.5 1.8.3 2.3-.4s.3-1.8-.4-2.3" fill="#02243e"/></g><path d="m38.2 44.9c0 2.6-3.3 4.7-7.4 4.7s-7.4-2.1-7.4-4.7" fill="#f7910b"/><g transform="translate(16 30)"><path d="m29.8.6c0 9.1-6.6 16.5-14.8 16.5s-14.8-7.4-14.8-16.5" fill="#c42260"/><path d="m29.8.6c0 3.1-6.6 5.6-14.8 5.6s-14.8-2.5-14.8-5.6" fill="#99144a"/><path d="m15 17.1c4.6 0 8.6-2.3 11.3-5.9-1.7-2.1-4.1-3.4-6.8-3.4-1.6 0-3.2.5-4.5 1.3-1.3-.9-2.9-1.3-4.5-1.3-2.7 0-5.1 1.3-6.8 3.4 2.7 3.6 6.7 5.9 11.3 5.9z" fill="#e2446e"/></g></g></svg>

<?xml version="1.0" encoding="UTF-8"?>
<svg width="62px" height="58px" viewBox="0 0 62 58" version="1.1" xmlns="http://www.w3.org/2000/svg" xmlns:xlink="http://www.w3.org/1999/xlink">
    <!-- Generator: Sketch 43.1 (39012) - http://www.bohemiancoding.com/sketch -->
    <title>imgly_sticker_emoticons_laugh</title>
    <desc>Created with Sketch.</desc>
    <defs></defs>
    <g id="Page-1" stroke="none" stroke-width="1" fill="none" fill-rule="evenodd">
        <g id="laugh" fill-rule="nonzero">
            <path d="M61.3,34.5 C61.3,47.5 49.4,58 31,58 C12.6,58 0.7,47.5 0.7,34.5 C0.7,21.5 12.6,2 31,2 C49.4,2 61.3,21.5 61.3,34.5 Z" id="Shape" fill="#F7910B"></path>
            <path d="M61.3,34.5 C61.3,47.5 49.4,54 31,54 C12.6,54 0.7,47.5 0.7,34.5 C0.7,21.5 12.6,0 31,0 C49.4,0 61.3,21.5 61.3,34.5 Z" id="Shape" fill="#F7910B"></path>
            <path d="M31,0 C49.4,0 61.3,21.5 61.3,34.5 C61.3,47.5 49.4,54 31,54" id="Shape" fill="#F9A908"></path>
            <path d="M61.3,34.5 C61.3,47.5 49.4,54 31,54 C12.6,54 0.7,47.5 0.7,34.5 C0.7,21.5 12.6,2 31,2 C49.4,2 61.3,21.5 61.3,34.5 Z" id="Shape" fill="#F9A908"></path>
            <path d="M0.7,34.5 C0.7,21.5 12.6,2 31,2" id="Shape" fill="#F9C55D"></path>
            <path d="M31,2 C49.4,2 61.3,21.5 61.3,34.5 C61.3,47.5 49.4,58 31,58" id="Shape" fill="#F7910B"></path>
            <path d="M31,2 C49.4,2 61.3,21.5 61.3,34.5" id="Shape" fill="#EA7103"></path>
            <g id="Group" transform="translate(18.000000, 11.000000)">
                <g id="Shape">
                    <path d="M6.9,0.9 C7.2,1.7 5.7,1.8 4,2.5 C2.3,3.1 1.1,4.1 0.8,3.3 C0.5,2.5 1.6,1.3 3.3,0.7 C4.9,-1.11022302e-16 6.5,0.1 6.9,0.9 Z" fill="#19BCA4"></path>
                    <path d="M6.9,0.9 C7.2,1.7 5.7,1.8 4,2.5 C2.3,3.1 1.1,4.1 0.8,3.3" fill="#109DA0"></path>
                </g>
                <g transform="translate(19.000000, 0.000000)" id="Shape">
                    <path d="M0.1,0.9 C-0.2,1.7 1.3,1.8 3,2.5 C4.7,3.1 5.9,4.1 6.2,3.3 C6.5,2.5 5.4,1.3 3.7,0.7 C2.1,-1.11022302e-16 0.5,0.1 0.1,0.9 Z" fill="#19BCA4"></path>
                    <path d="M0.1,0.9 C-0.2,1.7 1.3,1.8 3,2.5 C4.7,3.1 5.9,4.1 6.2,3.3" fill="#109DA0"></path>
                </g>
            </g>
            <g id="Group" transform="translate(11.000000, 25.000000)">
                <path d="M15.8,2.8 C15.8,4 12.3,3.5 8,3.5 C3.7,3.5 0.2,4.1 0.2,2.8 C0.2,1.6 3.7,0.6 8,0.6 C12.3,0.6 15.8,1.6 15.8,2.8 Z" id="Shape" fill="#F9C55D"></path>
                <path d="M39.8,2.8 C39.8,4 36.3,3.5 32,3.5 C27.7,3.5 24.2,4.1 24.2,2.8 C24.2,1.6 27.7,0.6 32,0.6 C36.3,0.6 39.8,1.6 39.8,2.8 Z" id="Shape" fill="#F9A908"></path>
            </g>
            <path d="M36.3,29.6 C36.3,30.7 33.9,31.7 31,31.7 C28.1,31.7 25.7,30.8 25.7,29.6" id="Shape" fill="#F9C55D"></path>
            <ellipse id="Oval" fill="#F7910B" cx="9.3" cy="31.5" rx="1" ry="1"></ellipse>
            <ellipse id="Oval" fill="#F7910B" cx="4.8" cy="33.5" rx="1.1" ry="1.1"></ellipse>
            <ellipse id="Oval" fill="#F7910B" cx="7.8" cy="29.5" rx="1" ry="1"></ellipse>
            <circle id="Oval" fill="#F7910B" cx="12.4" cy="31.3" r="1"></circle>
            <circle id="Oval" fill="#F9A908" cx="51.6" cy="31.8" r="1"></circle>
            <circle id="Oval" fill="#F9A908" cx="54.1" cy="33.2" r="1"></circle>
            <circle id="Oval" fill="#F9A908" cx="48.8" cy="24.4" r="1"></circle>
            <circle id="Oval" fill="#F9A908" cx="48.3" cy="36" r="1.3"></circle>
            <circle id="Oval" fill="#F9A908" cx="55.5" cy="36.1" r="1"></circle>
            <ellipse id="Oval" fill="#F7910B" cx="8.3" cy="35.5" rx="1" ry="1"></ellipse>
            <circle id="Oval" fill="#F7910B" cx="9.1" cy="27.1" r="1"></circle>
            <ellipse id="Oval" fill="#F9A908" cx="3.8" cy="13.3" rx="1.1" ry="1.1"></ellipse>
            <ellipse id="Oval" fill="#F9A908" cx="7" cy="9.8" rx="1" ry="1"></ellipse>
            <circle id="Oval" fill="#F9A908" cx="58.2" cy="15.7" r="1"></circle>
            <ellipse id="Oval" fill="#F9A908" cx="57.4" cy="12.8" rx="1" ry="1"></ellipse>
            <circle id="Oval" fill="#F9A908" cx="60" cy="13.3" r="1"></circle>
            <ellipse id="Oval" fill="#F9A908" cx="5" cy="16.3" rx="1" ry="1"></ellipse>
            <g id="Group" transform="translate(14.000000, 19.000000)">
                <g id="Shape">
                    <path d="M8.9,6 C8.5,5.9 8.1,5.7 7.8,5.3 C6.7,3.7 4.4,3.3 2.8,4.4 C2,4.9 1,4.7 0.5,4 C1.74860126e-15,3.3 0.2,2.2 0.9,1.7 C4,-0.5 8.3,0.3 10.5,3.5 C11,4.2 10.8,5.3 10.1,5.8 C9.7,6 9.3,6 8.9,6 Z" fill="#1E4784"></path>
                    <path d="M10.5,3.4 C11,4.1 10.8,5.2 10.1,5.7 C9.7,6 9.3,6 8.9,6 C8.5,5.9 8.1,5.7 7.8,5.3 C6.7,3.7 4.4,3.3 2.8,4.4 C2,4.9 1,4.7 0.5,4 C1.74860126e-15,3.3 0.2,2.2 0.9,1.7" fill="#02243E"></path>
                </g>
                <g transform="translate(23.000000, 0.000000)" id="Shape">
                    <path d="M2.1,6 C2.5,5.9 2.9,5.7 3.2,5.3 C4.3,3.7 6.6,3.3 8.2,4.4 C9,4.9 10,4.7 10.5,4 C11,3.3 10.8,2.2 10.1,1.7 C7,-0.5 2.7,0.3 0.5,3.5 C9.71445147e-16,4.2 0.2,5.3 0.9,5.8 C1.3,6 1.7,6 2.1,6 Z" fill="#1E4784"></path>
                    <path d="M0.5,3.4 C9.71445147e-16,4.1 0.2,5.2 0.9,5.7 C1.3,6 1.7,6 2.1,6 C2.5,5.9 2.9,5.7 3.2,5.3 C4.3,3.7 6.6,3.3 8.2,4.4 C9,4.9 10,4.7 10.5,4 C11,3.3 10.8,2.2 10.1,1.7" fill="#02243E"></path>
                </g>
            </g>
            <path d="M38.2,44.9 C38.2,47.5 34.9,49.6 30.8,49.6 C26.7,49.6 23.4,47.5 23.4,44.9" id="Shape" fill="#F7910B"></path>
            <g id="Group" transform="translate(16.000000, 30.000000)">
                <path d="M29.8,0.6 C29.8,9.7 23.2,17.1 15,17.1 C6.8,17.1 0.2,9.7 0.2,0.6" id="Shape" fill="#C42260"></path>
                <path d="M29.8,0.6 C29.8,3.7 23.2,6.2 15,6.2 C6.8,6.2 0.2,3.7 0.2,0.6" id="Shape" fill="#99144A"></path>
                <path d="M15,17.1 C19.6,17.1 23.6,14.8 26.3,11.2 C24.6,9.1 22.2,7.8 19.5,7.8 C17.9,7.8 16.3,8.3 15,9.1 C13.7,8.2 12.1,7.8 10.5,7.8 C7.8,7.8 5.4,9.1 3.7,11.2 C6.4,14.8 10.4,17.1 15,17.1 Z" id="Shape" fill="#E2446E"></path>
            </g>
        </g>
    </g>
</svg>
